!!!COA:	Josquin des Prez
!!!CDT:	~1450-1521/08/27
!!!OPR:	Missa Allez regretz I
!!!ONM:	3
!!!OTL:	Credo
!!!AGN:	Mass; Credo
!!!SCT:	NJE 7.1
!!!SCA:	New Josquin Edition 7.1
!!!voices:	4
!!!voices-OPR:	4
**kern	**kern	**kern	**kern
*staff4	*staff3	*staff2	*staff1
*Ivox	*Ivox	*Ivox	*Ivox
*I"Bassus	*I"Tenor	*I"Altus	*I"Superius
*I'B	*I'T	*I'A	*I'S
*>[A,B,C]	*>[A,B,C]	*>[A,B,C]	*>[A,B,C]
*>A	*>A	*>A	*>A
*clefF4	*clefGv2	*clefGv2	*clefG2
*k[b-]	*k[b-]	*k[b-]	*k[b-]
*M2/1	*M2/1	*M2/1	*M2/1
*met(C)	*met(C)	*met(C)	*met(C)
=1-	=1-	=1-	=1-
0r	0r	1F	1f
.	.	2A/	2f/
.	.	2B-\	2g/
=2	=2	=2	=2
0r	0r	2c\	2a/
.	.	2c\	2cc\
.	.	1d	2cc\
.	.	.	2b-\
=3	=3	=3	=3
2r	0r	2c\	2cc\
2F\	.	1c	2a/
2F\	.	.	2a/
2G\	.	2B-\	2g/
=4	=4	=4	=4
2A\	0r	1c	2f/
2c\	.	.	2e/
2c\	.	1r	2d/
2B-\	.	.	2d/
=5	=5	=5	=5
2c\	0r	2r	2c/
2C/	.	2.c\	1e
2C/	.	.	.
.	.	4B-\	.
2D\	.	2A/	2f/
=6	=6	=6	=6
2E\	0r	2G/	2g/
2G\	.	1B-	2.d/
2G\	.	.	.
.	.	.	4e/
2F\	.	2A/	2f/
=7	=7	=7	=7
1G	0r	2B-\	2d/
.	.	4A/	1g
.	.	4G/	.
1D	.	1A	.
.	.	.	2f#i/
=8	=8	=8	=8
1r	0r	1G	1g
2.A\	.	1r	2.cc\
4G\	.	.	4b-\
=9	=9	=9	=9
2F\	0r	2.c\	2a/
2E\	.	.	2g/
.	.	4B-\	.
2F\	.	2A/	2f/
2C/	.	2G/	2e/
=10	=10	=10	=10
2D\	0r	2F/	2f/
2C/	.	2E/	2r
1F	.	1F	1r
=11	=11	=11	=11
2.F\	2.c\	2.f\	2.a/
4F\	4c\	4f\	4a/
2F\	2c\	2f\	2a/
2F\	2c\	2f\	2a/
=12	=12	=12	=12
2C/	2c\	2e\	2g/
2C/	2c\	2e\	2g/
2F\	2A/	2f\	2a/
2F\	2A/	2f\	2cc\
=13	=13	=13	=13
2G\	2G/	2d\	2b-\
2G\	1B-	2d\	1g
1G	.	1d	.
.	4A/	.	2g/
.	4G/	.	.
=14	=14	=14	=14
2D\	0F	2d\	2a/
2D\	.	2d\	2a/
2D\	.	2A/	2f/
2D\	.	2A/	2f/
=15	=15	=15	=15
1C	2G/	1c	1e
.	2G/	.	.
2GG/	1B-	2d\	2d/
2GG/	.	2d\	2d/
=16	=16	=16	=16
2D\	0A	2d\	2f/
2D\	.	2d\	2f/
1D	.	1d	1f
=17	=17	=17	=17
2.E-\	1G	2.B-\	2.g/
4E-i\	.	4B-\	4g/
2E-i\	2G/	2B-\	2g/
2D\	4A/	2F/	2f/
.	4B-\	.	.
=18	=18	=18	=18
2C/	2c\	2G/	2e/
2C/	2c\	2G/	2e/
2D\	[1B-	1r	2f/
2BB-/	.	.	2f/
=19	=19	=19	=19
1E-i	2B-\]	2r	2g/
.	4A/	2c\	2g/
.	4G/	.	.
2D\	2F/	2d\	1a
2C/	2c\	2e-i\	.
=20	=20	=20	=20
1D	4B-\	2d\	2r
.	4A/	.	.
.	4G/	2B-\	1f
.	4F/	.	.
1C	1G	2.c\	.
.	.	.	2e/
.	.	4B-\	.
=21	=21	=21	=21
1F	[0F	0A	1f
2r	.	.	2r
2c\	.	.	2a/
=22	=22	=22	=22
2c\	0F_	2r	2a/
2c\	.	2c\	2a/
2A\	.	2c\	2a/
2A\	.	2c\	2a/
=23	=23	=23	=23
2r	0F_	2A/	1a
2F\	.	2A/	.
2F\	.	2r	2a/
2F\	.	2F/	2a/
=24	=24	=24	=24
2D\	0F]	2F/	2a/
2D\	.	2F/	2a/
1A	.	2D/	1a
.	.	2D/	.
=25	=25	=25	=25
2F\	0r	0A	2a/
2F\	.	.	2a/
2D\	.	.	2f/
2D\	.	.	2f/
=26	=26	=26	=26
2G\	0r	2G/	2b-\
2F\	.	2A/	2a/
2G\	.	2B-\	1g
2C/	.	2c\	.
=27	=27	=27	=27
2.F\	0r	0r	2.a/
4G\	.	.	4g/
4A\	.	.	2f/
4B-\	.	.	.
2c\	.	.	2e/
=28	=28	=28	=28
2F\	0r	0r	2d/
2E\	.	.	2c/
2D\	.	.	2f/
2C/	.	.	2e/
=29	=29	=29	=29
2F\	0r	0r	4d/
.	.	.	4c/
2A\	.	.	2.f/
1G	.	.	.
.	.	.	4e/
.	.	.	2e/
=30	=30	=30	=30
1F	1r	2r	1f
.	.	1A	.
2.D\	2.F/	.	2r
.	.	2F/	[2f/
4D\	4F/	.	.
=31	=31	=31	=31
2C/	2c\	2G/	2f/]
2C/	2c\	2G/	2e/
2F\	2c\	2F/	2f/
2F\	2c\	2F/	2f/
=32	=32	=32	=32
2.BB-/	2.d\	2F/	2f/
.	.	2F/	2f/
4BB-/	4d\	.	.
2BB-/	2d\	2B-\	2f/
2BB-/	2d\	2B-\	2f/
=33	=33	=33	=33
2C/	2c\	2G/	2e/
2C/	2c\	2G/	2e/
2C/	2c\	2G/	2e/
2C/	4B-\	2G/	2e/
.	4A/	.	.
=34	=34	=34	=34
2.D\	2B-\	1F	2d/
.	2A/	.	2d/
4D\	.	.	.
2D\	2F/	2F/	2d/
2BB-/	[2G/	2F/	2d/
=35	=35	=35	=35
2C/	2G/]	2E/	2e/
2AA/	1A	2E/	4c/
.	.	.	4c/
1BB-	.	2D/	2d/
.	2G/	2D/	2d/
=36	=36	=36	=36
[0AA	[0A	0E	1c
.	.	.	2r
.	.	.	2cc\
=37	=37	=37	=37
0AA]	0A]	2r	2cc\
.	.	2c\	2cc\
.	.	2c\	1a
.	.	2c\	.
=38	=38	=38	=38
0r	0r	4d\	4b-\
.	.	2d\	4a/
.	.	.	4g/
.	.	4d\	4f/
.	.	2c\	2e/
.	.	2A/	2c/
=39	=39	=39	=39
0r	0r	2B-\	2d/
.	.	2A/	1f
.	.	1G	.
.	.	.	2e/
=40	=40	=40	=40
0r	0r	2F/	2f/
.	.	2.f\	2d/
.	.	.	4d/
.	.	4e\	4c/
.	.	4d\	4B-/
.	.	4c\	4A/
=41	=41	=41	=41
0r	0r	2d\	1B-
.	.	2.f\	.
.	.	.	2A/
.	.	4e\	.
.	.	4d\	[2a/
.	.	4c\	.
=42	=42	=42	=42
0r	0r	2.d\	2a/]
.	.	.	2f/
.	.	4c\	.
.	.	2c\	[1cc
.	.	[2A/	.
=43	=43	=43	=43
2r	0r	2A/]	1cc]
1A	.	2F/	.
.	.	1c	1a
2F\	.	.	.
=44	=44	=44	=44
2c\	0r	2r	2g/
2F\	.	2c\	2a/
2D\	.	2d\	2f/
2E\	.	2B-\	2g/
=45	=45	=45	=45
0C	0r	0c	0e
=46	=46	=46	=46
2r	1r	2r	2r
2F\	.	2c\	2f/
2F\	1A	2c\	2f/
2F\	.	2c\	2f/
=47	=47	=47	=47
2D\	2A/	2d\	2f/
2D\	2A/	2d\	2f/
2F\	2A/	2c\	2a/
2F\	2A/	2f\	2a/
=48	=48	=48	=48
2G\	2B-\	2f\	2g/
2G\	2B-\	2e\	2g/
1F	2A/	1f	1a
.	2A/	.	.
=49	=49	=49	=49
2r	2G/	2e\	2b-\
2D\	2F/	2f\	2a/
1BB-	4G/	1r	1r
.	4F/	.	.
.	4E/	.	.
.	4D/	.	.
=50	=50	=50	=50
2.AA/	0C	2.c\	2.e/
4AA/	.	4c\	4e/
2AA/	.	2c\	2e/
2AA/	.	2c\	2e/
=51	=51	=51	=51
4D\	0r	1d	1f
4E\	.	.	.
4F\	.	.	.
4G\	.	.	.
2A\	.	2c\	2e/
2F\	.	2A/	[2a/
=52	=52	=52	=52
1G	1r	1B-	2a/]
.	.	.	2g/
1F	1c	1A	1a
=53	=53	=53	=53
1G	2.B-\	1d	1g
.	4A/	.	.
1G	2G/	1d	1b-
.	[2d\	.	.
=54	=54	=54	=54
2D\	2d\]	1f	2a/
1F	2.c\	.	1a
.	.	2r	.
.	4A/	.	.
2G\	2B-\	[2d\	2g/
=55	=55	=55	=55
2D\	1F	2d\]	2a/
2F\	.	1.c	1f
1C	1G	.	.
.	.	.	2e/
=56	=56	=56	=56
0Fl	0F;l	0Al	0fl
!!LO:LB:i:g=z
=57||	=57||	=57||	=57||
*>B	*>B	*>B	*>B
*clefF4	*clefGv2	*clefGv2	*clefG2
*k[b-]	*k[b-]	*k[b-]	*k[b-]
*M2/1	*M2/1	*M2/1	*M2/1
*met(C)	*met(C)	*met(C)	*met(C)
!!section: Crucifixus
!!!OMD: Crucifixus
0r	0r	2.F/	2.a/
.	.	4F/	4a/
.	.	2F/	2a/
.	.	2F/	2a/
=58	=58	=58	=58
0r	0r	2c\	2g/
.	.	2c\	2g/
.	.	2c\	2a/
.	.	2c\	2a/
=59	=59	=59	=59
0r	0r	0d	2f/
.	.	.	2.b-\
.	.	.	4a/
.	.	.	4g/
.	.	.	4f/
=60	=60	=60	=60
0r	0r	2c\	2e/
.	.	1c	1a
.	.	4B-\	4g/
.	.	4A/	4f/
=61	=61	=61	=61
0r	0r	4B-\	4g/
.	.	4A/	4f/
.	.	4G/	4e/
.	.	4F/	4d/
.	.	1G	1e
=62	=62	=62	=62
1r	1r	1F	1f
2r	2r	2r	2r
[2F\	[2F/	[2A/	[2f/
=63	=63	=63	=63
2F\]	2F/]	2A/]	2f/]
2C/	2G/	2c\	2e/
2C/	2G/	2c\	2e/
[2F\	[2A/	[2c\	[2f/
=64	=64	=64	=64
4F\]	4A/]	2c\]	4f/]
4E\	4G/	.	4g/
2C/	1c	2c\	2e/
1D	.	1F	1f
.	2Bni\	.	.
=65	=65	=65	=65
1C	1c	1G	1e
2.F\	2.c\	2.A/	2.f/
4F\	4c\	4A/	4f/
=66	=66	=66	=66
2C/	2c\	2G/	2e/
2F\	2c\	2F/	2f/
2C/	2c\	2G/	2f/
2C/	2c\	2G/	2e/
=67	=67	=67	=67
0Fl	0cl	0Fl	0fl
!!LO:LB:i:g=z
=68||	=68||	=68||	=68||
*>C	*>C	*>C	*>C
*clefF4	*clefGv2	*clefGv2	*clefG2
*k[b-]	*k[b-]	*k[b-]	*k[b-]
*M2/1	*M2/1	*M2/1	*M2/1
*met(C)	*met(C)	*met(C)	*met(C)
!!section: Et resurrexit
!!!OMD: Et resurrexit
1F	0c	1f	1a
2F\	.	2f\	2a/
2F\	.	2f\	2a/
=69	=69	=69	=69
2G\	1B-	2d\	2g/
2G\	.	2d\	2g/
2G\	1B-	2d\	2g/
2G\	.	2d\	2g/
=70	=70	=70	=70
2D\	1A	2d\	1a
2D\	.	2d\	.
1D	1A	1d	1f
=71	=71	=71	=71
2r	1A	2r	2e/
2D\	.	2d\	2f/
2F\	1A	2c\	2f/
2F\	.	2c\	2f/
=72	=72	=72	=72
2C/	1G	2c\	2e/
2C/	.	2c\	2e/
2F\	1A	2c\	2f/
[2D\	.	2d\	[2a/
=73	=73	=73	=73
4D\]	2F/	2A/	4a/]
4D\	.	.	4a/
2D\	2D/	2d\	2a/
2AA/	1E	2d\	2a/
2AA/	.	2c\	2a/
=74	=74	=74	=74
2BB-/	2.D/	2d\	2f/
2BB-/	.	2d\	2f/
.	4E/	.	.
2BB-/	2F/	2B-\	2d/
2BB-/	2G/	2B-\	2d/
=75	=75	=75	=75
2.AA/	2.A/	1c	2c/
.	.	.	1e
4BB-/	8G/L	.	.
.	8F/J	.	.
2C/	4E/	2c\	.
.	4C/	.	.
2D\	2F/	[2A/	2d/
=76	=76	=76	=76
2F\	2A/	2A/]	2c/
2BB-/	2B-\	2d\	1f
1C	1G	1c	.
.	.	.	2e/
=77	=77	=77	=77
2r	0F	2.A/	1f
2c\	.	.	.
.	.	4G/	.
2c\	.	1F	2r
2c\	.	.	2cc\
=78	=78	=78	=78
2A\	0r	2r	2cc\
2A\	.	1f	2cc\
2F\	.	.	2a/
2F\	.	2f\	2a/
=79	=79	=79	=79
2D\	0r	2f\	2f/
2D\	.	2d\	2f/
2.G\	.	2d\	2d/
.	.	2B-\	2d/
4G\	.	.	.
=80	=80	=80	=80
2G\	0r	2B-\	2g/
2G\	.	2G/	2g/
2E\	.	2G/	2g/
2E\	.	[2c\	2g/
=81	=81	=81	=81
1C	0r	4c\]	2e/
.	.	4c\	.
.	.	2c\	2e/
[1F	.	2c\	1c
.	.	2A/	.
=82	=82	=82	=82
1F]	0r	2A/	2r
.	.	1F	2cc\
1r	.	.	2cc\
.	.	2G/	[2b-\
=83	=83	=83	=83
0r	0r	2A/	4b-\]
.	.	.	4a/
.	.	2c\	1a
.	.	2.B-\	.
.	.	.	2g/
.	.	4B-\	.
=84	=84	=84	=84
2r	0r	2A/	1a
1F	.	1A	.
.	.	.	1r
2E\	.	2G/	.
=85	=85	=85	=85
2F\	1r	2A/	1r
2E\	.	2G/	.
2.F\	2r	1A	2r
.	[2f\	.	[2a/
4E\	.	.	.
=86	=86	=86	=86
2D\	2f\]	2F/	2a/]
2C/	2e\	2G/	2cc\
2F\	1c	2A/	2cc\
2A\	.	2F/	[2cc\
=87	=87	=87	=87
1G	1d	2r	2cc\]
.	.	2B-\	2b-\
2C/	1c	2G/	2cc\
2F\	.	2A/	[2f/
=88	=88	=88	=88
1C	2.c\	1G	2f/]
.	.	.	2e/
.	4c\	.	.
2F\	2c\	[1F	2f/
2F\	2c\	.	2f/
=89	=89	=89	=89
1D	2d\	1F]	1f
.	2d\	.	.
2.F\	2c\	2.f\	2.a/
.	2A/	.	.
4F\	.	4f\	4a/
=90	=90	=90	=90
2BB-/	4B-\	4d\	4g/
.	4A/	4c\	4f/
2BB-/	4G/	4B-\	4e/
.	4F/	4A/	4d/
2C/	2E/	2G/	2c/
2D\	[2F/	2F/	2f/
=91	=91	=91	=91
2D\	2F/]	2A/	2f/
2C/	2E/	1c	2g/
1F	2D/	.	2a/
.	2D/	2B-\	[2f/
=92	=92	=92	=92
1G	1C	1c	2f/]
.	.	.	2e/
2F\	2F/	2A/	2f/
2r	2G/	2r	2r
=93	=93	=93	=93
1D	2.A/	1F	1f
.	4B-\	.	.
2C/	2c\	2G/	2e/
2BB-/	[2d\	2D/	2f/
=94	=94	=94	=94
2BB-/	2d\]	2D/	2f/
2C/	2c\	2G/	2e/
2D\	2A/	2F/	2f/
2BB-/	2B-\	2G/	2d/
=95	=95	=95	=95
2D\	1F	2F/	2a/
2F\	.	1f	2a/
1C	1G	.	1g
.	.	2e\	.
=96	=96	=96	=96
1F	[0F	1f	1a
2r	.	2r	2r
2D\	.	2f\	2a/
=97	=97	=97	=97
2D\	0F_	2f\	2a/
2D\	.	2f\	2a/
2BB-/	.	2d\	2b-\
2BB-/	.	2d\	2b-\
=98	=98	=98	=98
2D\	0F_	2d\	2a/
2D\	.	2d\	2a/
1D	.	1d	1a
=99	=99	=99	=99
2.A\	0F]	2c\	2a/
.	.	2c\	2a/
4A\	.	.	.
2A\	.	2c\	2f/
2A\	.	2c\	2f/
=100	=100	=100	=100
1G	0r	1d	1b-
1F	.	2d\	1a
.	.	[2c\	.
=101	=101	=101	=101
0r	0r	2c\]	2r
.	.	1c	2a/
.	.	.	2a/
.	.	2c\	2a/
=102	=102	=102	=102
0r	0r	2c\	2a/
.	.	2.c\	2.a/
.	.	4G/	4g/
.	.	2B-\	[2g/
=103	=103	=103	=103
0r	0r	1A	2g/]
.	.	.	2f#i/
.	.	1G	1g
=104	=104	=104	=104
2r	0r	0r	2r
1A	.	.	2c/
.	.	.	2c/
2A\	.	.	2c/
=105	=105	=105	=105
2A\	0r	0r	4c/
.	.	.	4d/
2A\	.	.	4e/
.	.	.	4f/
2G\	.	.	2g/
2F\	.	.	2a/
=106	=106	=106	=106
2G\	0r	0r	2b-\
2c\	.	.	2a/
4B-\	.	.	4g/
4A\	.	.	4f/
4G\	.	.	[2f/
4F\	.	.	.
=107	=107	=107	=107
1G	0r	0r	2f/]
.	.	.	2e/
1F	.	.	1f
=108	=108	=108	=108
2r	2r	2r	2r
1D	2.F/	2.f\	1a
.	4F/	4f\	.
2D\	2F/	2f\	2a/
=109	=109	=109	=109
2D\	2F/	2f\	2a/
2G\	2G/	2.d\	2b-\
2F\	2A/	.	2a/
.	.	4c\	.
2A\	[2c\	[2f\	2a/
=110	=110	=110	=110
2G\	2c\]	2f\]	2b-\
2G\	2B-\	2e\	2b-\
1F	1c	1f	1a
=111	=111	=111	=111
0r	2r	0r	2r
.	2F/	.	2a/
.	2F/	.	2a/
.	2F/	.	2a/
=112	=112	=112	=112
0r	2F/	0r	2a/
.	2G/	.	2g/
.	2A/	.	2f/
.	2c\	.	2e/
=113	=113	=113	=113
0r	2c\	1r	2d/
.	2Bni\	.	2d/
.	1c	1F	2c/
.	.	.	2f/
=114	=114	=114	=114
0r	0r	2.A/	2f/
.	.	.	2f/
.	.	4A/	.
.	.	2A/	2f/
.	.	2B-\	2g/
=115	=115	=115	=115
2r	0r	2c\	2a/
2F\	.	2c\	2cc\
2F\	.	1d	2cc\
2G\	.	.	2b-\
=116	=116	=116	=116
2A\	0r	2c\	1cc
2c\	.	2.F/	.
2c\	.	.	2c/
.	.	4E/	.
2B-\	.	2D/	2d/
=117	=117	=117	=117
1c	2r	2C/	2e/
.	1C	1E	1g
2c\	.	.	.
2A\	2D/	2F/	2f/
=118	=118	=118	=118
2.G\	2E/	2.E/	1g
.	1G	.	.
4G\	.	4E/	.
2G\	.	2E/	2r
2D\	2F/	2F/	[2a/
=119	=119	=119	=119
1E-	1G	2r	4a/]
.	.	.	4g/
.	.	2c\	1g
1D	1A	1d	.
.	.	.	2f#i/
=120	=120	=120	=120
2E-i\	1G	2B-\	1g
2C/	.	2c\	.
4D\	1r	2A/	1r
4C/	.	.	.
[2F\	.	4G/	.
.	.	4F/	.
=121	=121	=121	=121
2F\]	1r	1G	1r
2E\	.	.	.
2F\	2r	2F/	2r
2D\	2F/	[2A/	[2a/
=122	=122	=122	=122
2D\	2F/	4A/]	4a/]
.	.	4A/	4a/
2D\	2F/	2A/	2f/
2D\	2F/	2B-\	2f/
2C/	2G/	2c\	2e/
=123	=123	=123	=123
2F\	2A/	2F/	2f/
2C/	2.c\	2G/	2e/
1D	.	1F	2f/
.	4B-\	.	.
.	2B-\	.	[2f/
=124	=124	=124	=124
1C	1c	1G	2f/]
.	.	.	2e/
1F	[1A	[1F	1f
=125	=125	=125	=125
2r	1A]	1F]	2.a/
2c\	.	.	.
.	.	.	4f/
2B-\	1r	1r	4b-\
.	.	.	4a/
[2c\	.	.	4g/
.	.	.	4f/
=126	=126	=126	=126
2c\]	0r	0r	2e/
4B-\	.	.	1f
4A\	.	.	.
1G	.	.	.
.	.	.	2e/
=127	=127	=127	=127
1F	1r	1r	1f
2r	2r	2r	2r
[2BB-/	2F/	[2B-\	2d/
=128	=128	=128	=128
2BB-/]	2F/	2B-\]	2d/
2BB-/	2F/	2B-\	2d/
2D\	2F/	2B-\	2f/
2C/	2G/	2c\	2e/
=129	=129	=129	=129
2.F\	2A/	2c\	1f
.	1c	2c\	.
4E\	.	.	.
2F\	.	2f\	2a/
2G\	2B-\	2e\	2g/
=130	=130	=130	=130
1F	1c	2f\	2a/
.	.	2F/	2.cc\
1E-	1c	1G	.
.	.	.	4b-\
.	.	.	4a/
.	.	.	4g/
=131	=131	=131	=131
2D\	1d	2A/	2f/
2BB-/	.	2.F/	2b-\
2F\	2c\	.	2a/
.	.	2f\	.
2G\	2B-\	.	2g/
.	.	4e\	.
=132	=132	=132	=132
2D\	2A/	2f\	2a/
2G\	2.B-\	1d	2.g/
2D\	.	.	.
.	4F/	.	4f/
2F\	2A/	[2c\	[2f/
=133	=133	=133	=133
1C	1G	4c\]	2f/]
.	.	4B-\	.
.	.	4A/	2e/
.	.	4G/	.
1Fl	1Fl	1Al	1fl
==	==	==	==
*-	*-	*-	*-
!!!RDF**kern: l=long note in original notation
!!!RDF**kern: i=editorial accidental
!!!RDF**kern: V=start of tuplet marker
!!!RDF**kern: Z=end of tuplet marker
!!!ENC:	Jesse Rodin; Victoria Chang 2012/02/24
!!!END:	2012/02/24/
!!!EED:	Jesse Rodin
!!!EEV:	2012/08/13/
!!attribution-level@Jos: 4 (questionable)
!!!ONB:	Translated from MusicXML and edited on 2012/08/13/ by Craig Sapp
!!muse2ps: T^@{OPR}^u^@{ONM}{. }@{OTL}^C^@{COA}?\n@{SCT}^i2I150v95,95,95,150Q8c105
